X:1
T:St. James’ Stockholm, 886.88
T:St. James’ Stockholm, 886.88
T:Olof Åhlström,1825
T:Public Domain Courtesy of the Cyber Hymnal™
C:Olof Åhlström,1825
Z:Public Domain
Z:Courtesy of the Cyber Hymnal™
%%score 1 ( 2 3 )
L:1/8
Q:1/4=105
M:none
K:G
V:1 treble 
V:2 bass 
V:3 bass 
V:1
 [DG]2 | [GB]2 [Gd]2 [FA]2 [Gc]2 | [GB]2 [FA]2 [DG]2 [FA]2 | [GB]2 [FA]2 [EG]2 [DF]2 | %4
 [DE]2 [^CE]2 [A,D]2 !breath![B,D]2 | [CE]2 [DG]2 [EG]2 [DF]2 | [DG]6 [DB]2 | %7
 [Dd]2 [Fc]2 [GB]2 [FA]2 | [EG]2 [EA]2 [FB]2 [EG]2 | [Ec]2 [FA]2 [GB]2 [EA]2 | [DG]2 [DF]2 [DG]2 |] %11
V:2
 [G,B,]2 | [E,E]2 [B,,D]2 [D,D]2 [E,C]2 | [D,D]2 [D,D]2 [G,B,]2 [D,D]2 | %3
 [G,D]2 [D,D]2 [E,B,]2 [B,,B,]2 | [G,,B,]2 [A,,A,]2 [D,F,]2 [G,,G,]2 | %5
 [C,G,]2 [B,,B,]2 [C,A,]2 [D,A,]2 | [G,,B,]6 G,2 | [F,A,]2 [A,C]2 [G,D]2 [D,D]2 | %8
 [E,B,]2 [C,E]2 [B,,^D]2 [E,B,]2 | [A,,C]2 [D,D]2 [G,,D]2 [C,C]2 | [D,B,]2 [D,A,]2 [G,,B,]2 |] %11
V:3
 x2 | x8 | x8 | x8 | x8 | x8 | x6 G,2 | x8 | x8 | x8 | x6 |] %11

